X: 1
T: The Clumsy Lover
R: reel
M: 4/4
L: 1/8
K: Amaj
|:ceef ecBA|dfff =gfed|ceef ecBA|dBBA B2d2|ceef ecBA|dfff =gfed|ceec dAGA|BAAG A4:||:ceea aeec|deea aeed|ceea aeec|dBBA B2d2|ceea aeec|deea aeed|ceec dAGA|BAAG A4:||:ceec ecec|dfff =gfed|ceec ecec|dBBA B2d2|ceec ecec|dfff =gfed|ceec dAGA|BAAG A4:||:caac acac|daad adad|caac acac|Bece deBe|caac acac|daad adad|ceec dAGA|BAAG A4:|


Tune 16	Setting 21146

